X:1
T:Title
%%score { ( 1 3 ) | ( 2 4 ) }
L:1/8
M:4/4
K:C
V:1 treble nm="Grand Piano"
V:3 treble 
V:2 bass 
V:4 bass 
V:1
 z4 z2[Q:1/4=106] (3[CE][DF][_E^F] | [EG]2 [Ge]2 [Ec]2 [EG]2 | [FA]2 [FA]2 [EG]2 (3[CE][DF][_E^F] | %3
 [EG]2 [EG]2 [Ge]2 [Ge]2 |[M:3/4] d6 |[M:1/4] (3GGG |[M:4/4] [Ge]2 [Ge]2 [Ec]2 [EG]2 | %7
 [FA]2 [FA]2 [EG]2 (3[EG][EG][EG] | [Gc]2 [Gc]2 [Fd]2 [FG]2 |[M:3/4] [Ec]6 |[M:1/4] (3GGG | %11
[M:4/4] G6 z2 | G6 z2 |[M:3/4] G6 |[M:1/4] (3GGG |[M:4/4] G6 z2 | A2 (3AAA [FB]2 (3[FB][FB][FB] | %17
 c2 (3ccc d2 (3ddd | c2 (3ccc [FB]>[FB] [FA]>[FB] |[M:3/4] [Ec]6 |] %20
V:2
 z4 z2 (3:2:2[C,G,]2 [C,G,] | [C,C]2 [C,C]2 [C,G,]2 [C,C]2 | %2
 [F,C]2 [F,C]2 [C,C]2 (3[C,G,][C,G,][C,G,] | [C,C]2 [C,C]2 [C,C]2 [C,C]2 | %4
[M:3/4][K:treble] [G,B,G]6 |[M:1/4] (3[G,B,F][G,B,F][G,B,F] | %6
[M:4/4][K:bass] [C,C]2 [C,C]2 [C,G,]2 [C,C]2 | [F,C]2 [F,C]2 [C,C]2 (3[C,C][C,C][C,C] | %8
 [E,C]2 [E,C]2 [G,B,]2 [G,B,]2 |[M:3/4] [C,G,]6 |[M:1/4][K:treble] (3EEE | %11
[M:4/4] F6[K:bass][K:treble] z2 | E6[K:bass] z2[K:treble] |[M:3/4] F6[K:bass] | %14
[M:1/4][K:treble] (3FFF |[M:4/4] E6[K:bass] z2 | %16
 [F,CF]2 (3[F,CF][F,CF][F,CF] [D,G,]2 (3[D,G,][D,G,][D,G,] | %17
 [A,E]2 (3[A,E][A,E][A,E] [F,A,F]2 (3[F,A,F][F,A,F][F,A,F] | %18
 [G,E]2 (3[G,E][G,E][G,E] [G,,G,]>[G,,G,] [G,,G,]>[G,,G,] |[M:3/4] [C,G,]6 |] %20
V:3
 x8 | x8 | x8 | x8 |[M:3/4] x6 |[M:1/4] x2 |[M:4/4] x8 | x8 | x8 |[M:3/4] x6 |[M:1/4] x2 | %11
[M:4/4] z2 (3B,B,B, B,2 (3GGG | z2 (3CCC C2 (3GGG |[M:3/4] z2 (3B,B,B, B,2 |[M:1/4] x2 | %15
[M:4/4] z2 (3CCC C2 (3[EG][EG][EG] | x8 | x8 | x8 |[M:3/4] x6 |] %20
V:4
 x8 | x8 | x8 | x8 |[M:3/4][K:treble] x6 |[M:1/4] x2 |[M:4/4][K:bass] x8 | x8 | x8 |[M:3/4] x6 | %10
[M:1/4][K:treble] x2 |[M:4/4] z2[K:bass] (3G,,G,,G,, G,,2[K:treble] (3FFF | %12
 z2[K:bass] (3C,C,C, C,2 (3E[K:treble]EE |[M:3/4] z2[K:bass] (3G,,G,,G,, G,,2 | %14
[M:1/4][K:treble] x2 |[M:4/4] z2[K:bass] (3C,C,C, C,2 (3[C,C][C,C][C,C] | x8 | x8 | x8 | %19
[M:3/4] x6 |] %20

